src/assets/icons/reactjs.svg

<?xml version="1.0" encoding="utf-8"?><!-- Uploaded to: SVG Repo, www.svgrepo.com, Generator: SVG Repo Mixer Tools -->
<svg width="800px" height="800px" viewBox="0 0 16 16" fill="none" xmlns="http://www.w3.org/2000/svg">
<path fill-rule="nonzero" clip-rule="nonzero" d="M4.84989 2.37195C4.59895 2.51683 4.33488 2.91636 4.30424 3.78785C4.28968 4.20181 3.9423 4.52559 3.52835 4.51103C3.11439 4.49647 2.79061 4.1491 2.80516 3.73514C2.84273 2.66673 3.1806 1.60366 4.09989 1.07291C5.02179 0.540653 6.11484 0.782356 7.06128 1.28727C7.42674 1.48224 7.56495 1.93656 7.36998 2.30201C7.17501 2.66747 6.72069 2.80568 6.35524 2.61072C5.5818 2.1981 5.10158 2.22663 4.84989 2.37195ZM8.87139 3.67284C9.19036 3.40858 9.66315 3.45293 9.92741 3.7719C10.4818 4.44103 11.0136 5.20405 11.4963 6.04018C12.5366 7.84191 13.178 9.68785 13.3509 11.2362C13.4372 12.0091 13.4108 12.7446 13.2303 13.3754C13.0484 14.011 12.6941 14.5863 12.0999 14.9293C11.381 15.3444 10.5509 15.2855 9.79114 15.0089C9.02868 14.7313 8.24395 14.2056 7.49586 13.5228C7.18993 13.2435 7.16831 12.7691 7.44756 12.4632C7.72681 12.1573 8.20119 12.1356 8.50712 12.4149C9.16624 13.0165 9.78567 13.4105 10.3043 13.5994C10.8257 13.7892 11.1537 13.7436 11.3499 13.6303C11.5143 13.5354 11.6797 13.342 11.7882 12.9627C11.8981 12.5787 11.9328 12.0529 11.8602 11.4026C11.7152 10.1045 11.1591 8.45607 10.1973 6.79018C9.75492 6.02396 9.27081 5.33055 8.77232 4.72886C8.50807 4.40989 8.55242 3.93709 8.87139 3.67284Z" fill="#61DBFB"/>
<path fill-rule="nonzero" clip-rule="nonzero" d="M14.5 8.20557C14.5 7.91581 14.286 7.48735 13.5466 7.02507C13.1954 6.80549 13.0887 6.34276 13.3083 5.99154C13.5279 5.64032 13.9906 5.53361 14.3418 5.75319C15.2483 6.31993 16 7.14407 16 8.20557C16 9.27009 15.2442 10.0958 14.3337 10.663C13.9821 10.882 13.5195 10.7746 13.3005 10.423C13.0815 10.0714 13.189 9.60887 13.5405 9.38985C14.2846 8.92635 14.5 8.4962 14.5 8.20557ZM11.3626 11.0378C11.432 11.4462 11.1572 11.8335 10.7488 11.9029C9.89219 12.0484 8.96547 12.1274 8 12.1274C5.91954 12.1274 4.00018 11.76 2.57286 11.1355C1.86032 10.8238 1.23659 10.4332 0.780529 9.9615C0.320977 9.48616 0 8.89166 0 8.20557C0 7.37549 0.466082 6.68599 1.08548 6.16636C1.70712 5.64485 2.55471 5.22808 3.52013 4.92164C3.91494 4.79633 4.33657 5.01479 4.46189 5.40959C4.5872 5.80439 4.36874 6.22603 3.97394 6.35135C3.12334 6.62134 2.4724 6.96078 2.04954 7.31553C1.62442 7.67217 1.5 7.97899 1.5 8.20557C1.5 8.39536 1.58476 8.6353 1.85895 8.91891C2.13663 9.20613 2.57464 9.49905 3.17409 9.76131C4.37076 10.2848 6.07639 10.6274 8 10.6274C8.88475 10.6274 9.72732 10.5549 10.4976 10.424C10.906 10.3547 11.2933 10.6295 11.3626 11.0378Z" fill="#61DBFB"/>
<path fill-rule="nonzero" clip-rule="nonzero" d="M4.87192 13.6303C5.12286 13.7752 5.6009 13.8041 6.37095 13.3949C6.73673 13.2005 7.19082 13.3395 7.38519 13.7052C7.57957 14.071 7.44062 14.5251 7.07484 14.7195C6.13079 15.2211 5.04121 15.4601 4.12192 14.9293C3.20003 14.3971 2.86282 13.3296 2.82687 12.2575C2.81299 11.8435 3.13733 11.4967 3.55131 11.4828C3.96529 11.4689 4.31215 11.7932 4.32603 12.2072C4.35541 13.0834 4.62023 13.485 4.87192 13.6303ZM3.98778 9.49712C3.59944 9.35301 3.40145 8.92138 3.54556 8.53304C3.84786 7.71839 4.24274 6.8763 4.72548 6.04018C5.76571 4.23845 7.04361 2.75996 8.29806 1.83609C8.92431 1.37487 9.57441 1.02999 10.211 0.870901C10.8524 0.71059 11.5278 0.729863 12.1219 1.07291C12.8408 1.48795 13.2049 2.23634 13.3452 3.03257C13.486 3.83168 13.4232 4.77409 13.2058 5.7634C13.1169 6.16796 12.7169 6.42388 12.3124 6.33501C11.9078 6.24613 11.6519 5.84612 11.7408 5.44155C11.9322 4.56992 11.9637 3.83647 11.868 3.29288C11.7717 2.7464 11.5681 2.48524 11.3719 2.37195C11.2076 2.27705 10.9574 2.23049 10.5747 2.32614C10.1871 2.42301 9.71442 2.65588 9.18757 3.04388C8.13584 3.81846 6.98632 5.12428 6.02452 6.79018C5.58214 7.55639 5.22369 8.32235 4.95185 9.0549C4.80774 9.44323 4.37611 9.64122 3.98778 9.49712Z" fill="#61DBFB"/>
<path d="M9.45925 8.06618C9.45925 8.81694 8.85063 9.42556 8.09987 9.42556C7.34911 9.42556 6.7405 8.81694 6.7405 8.06618C6.7405 7.31542 7.34911 6.70681 8.09987 6.70681C8.85063 6.70681 9.45925 7.31542 9.45925 8.06618Z" fill="#61DBFB"/>
</svg>

<svg xmlns="http://www.w3.org/2000/svg" width="800" height="800" fill="none" viewBox="0 0 16 16"><path fill="#61DBFB" d="M4.85 2.372c-.251.145-.515.544-.546 1.416a.75.75 0 0 1-1.499-.053c.038-1.068.376-2.131 1.295-2.662.922-.532 2.015-.29 2.961.214a.75.75 0 0 1-.706 1.324c-.773-.413-1.253-.384-1.505-.24m4.021 1.3a.75.75 0 0 1 1.056.1c.555.669 1.087 1.432 1.57 2.268 1.04 1.802 1.681 3.648 1.854 5.196.086.773.06 1.509-.12 2.14-.183.635-.537 1.21-1.131 1.553-.719.415-1.55.357-2.309.08-.762-.278-1.547-.803-2.295-1.486a.75.75 0 0 1 1.011-1.108c.66.602 1.279.996 1.797 1.184.522.19.85.145 1.046.031.164-.095.33-.288.438-.667.11-.384.145-.91.072-1.56-.145-1.299-.7-2.947-1.663-4.613A15 15 0 0 0 8.772 4.73a.75.75 0 0 1 .1-1.056"/><path fill="#61DBFB" d="M14.5 8.206c0-.29-.214-.719-.953-1.18a.75.75 0 0 1 .795-1.273C15.248 6.32 16 7.144 16 8.206c0 1.064-.756 1.89-1.666 2.457a.75.75 0 0 1-.793-1.273c.744-.464.959-.894.959-1.184m-3.137 2.832a.75.75 0 0 1-.614.865c-.857.145-1.784.224-2.749.224-2.08 0-4-.367-5.427-.992-.713-.311-1.336-.702-1.792-1.174C.32 9.487 0 8.891 0 8.206c0-.83.466-1.52 1.085-2.04.622-.521 1.47-.938 2.435-1.244a.75.75 0 0 1 .454 1.43c-.85.27-1.502.609-1.924.964-.426.356-.55.663-.55.89 0 .19.085.43.359.713.278.287.716.58 1.315.842 1.197.524 2.902.866 4.826.866.885 0 1.727-.072 2.498-.203a.75.75 0 0 1 .865.614"/><path fill="#61DBFB" d="M4.872 13.63c.25.145.729.174 1.499-.235a.75.75 0 1 1 .704 1.325c-.944.501-2.034.74-2.953.21-.922-.533-1.26-1.6-1.295-2.672a.75.75 0 0 1 1.499-.05c.03.875.294 1.277.546 1.422m-.884-4.133a.75.75 0 0 1-.442-.964c.302-.815.697-1.657 1.18-2.493 1.04-1.802 2.318-3.28 3.572-4.204.626-.461 1.276-.806 1.913-.965.641-.16 1.317-.141 1.91.202.72.415 1.084 1.163 1.224 1.96.141.799.078 1.741-.14 2.73a.75.75 0 1 1-1.464-.321c.191-.872.223-1.606.127-2.15-.096-.546-.3-.807-.496-.92-.164-.095-.415-.142-.797-.046-.388.097-.86.33-1.387.718-1.052.774-2.202 2.08-3.163 3.746-.443.766-.801 1.532-1.073 2.265a.75.75 0 0 1-.964.442"/><path fill="#61DBFB" d="M9.46 8.066a1.36 1.36 0 1 1-2.72 0 1.36 1.36 0 0 1 2.72 0"/></svg>
